lib/preview/nrk-logo-preview-nrk-troms-with-bg.svg

<svg width="96" height="24" viewBox="0 0 96 24" fill="none" xmlns="http://www.w3.org/2000/svg">
<rect width="96" height="24" fill="#1767CE"/>
<path d="M6 17.9662V5.96732H10V17.9662H6ZM15.2438 7.87701L17.5081 17.9662H13.1992L10.4955 5.96732H12.9122C13.4663 5.96013 14.0041 6.15548 14.4245 6.51662C14.8456 6.86261 15.0849 7.34293 15.2438 7.87701ZM18 17.9662V5.96732H22V17.9662H18ZM25.0105 10.5303C24.5862 10.5345 24.1687 10.4235 23.8025 10.2092C23.4412 10.0004 23.1411 9.70019 22.9323 9.33883C22.7178 8.97256 22.6068 8.55499 22.611 8.13055C22.6061 7.70869 22.7172 7.29361 22.9323 6.93066C23.1433 6.57322 23.4431 6.27633 23.8025 6.06875C24.1689 5.85473 24.5862 5.74375 25.0105 5.74762C25.4322 5.74307 25.8471 5.85416 26.2102 6.06875C26.566 6.27814 26.8626 6.57479 27.072 6.93066C27.2868 7.29371 27.3979 7.70873 27.3933 8.13055C27.3973 8.55496 27.2863 8.97246 27.072 9.33883C26.8649 9.69861 26.5679 9.99851 26.2102 10.2092C25.8471 10.4242 25.4324 10.5353 25.0105 10.5303ZM28 17.9662V5.96732H32V17.9662H28ZM36.9737 12.5245C36.9848 12.5361 37.0693 12.6741 37.2272 12.9385C37.3851 13.2029 37.5906 13.5409 37.8439 13.9525C38.0974 14.3639 38.3649 14.8005 38.6463 15.2622C38.9278 15.724 39.1926 16.1606 39.4408 16.572C39.6881 16.9834 39.9697 17.4482 40.2857 17.9662H35.9598C35.6893 17.5268 35.4441 17.1297 35.2245 16.7748C35.0048 16.4199 34.7713 16.0368 34.5238 15.6256C34.2758 15.2147 34.0306 14.8148 33.7882 14.4257C33.5458 14.0366 33.3375 13.6958 33.1633 13.4033C32.9883 13.1105 32.8671 12.9134 32.7997 12.8118C32.6325 12.5597 32.5336 12.2685 32.5127 11.9668C32.5294 11.6772 32.6226 11.3972 32.7828 11.1553C32.8503 11.0427 32.9743 10.8427 33.1545 10.5554C33.3348 10.2681 33.546 9.92728 33.7882 9.53295C34.0304 9.13863 34.2756 8.73584 34.5238 8.32461C34.772 7.91338 35.0055 7.52747 35.2245 7.16694C35.4445 6.80678 35.6897 6.40682 35.9598 5.96705H40.2857L36.9396 11.4257C36.8361 11.5878 36.7777 11.7746 36.7706 11.9668C36.7818 12.1686 36.8528 12.3625 36.9737 12.5245Z" fill="white"/>
<g clip-path="url(#clip0_5919_2884)">
<path d="M49.6363 7.45375V17.95H47.8644V7.45375H44V5.96875H53.4838V7.45375H49.6363ZM56.9431 9.28469C56.6281 9.36906 56.33 9.49844 56.0487 9.67281C55.7675 9.84719 55.5031 10.0581 55.2556 10.3056C55.2163 10.345 55.1769 10.39 55.1375 10.4322V9.175L53.4162 9.42812V17.95H55.1375V11.5741C55.2669 11.4841 55.3991 11.3997 55.5341 11.3266C55.7084 11.2309 55.8828 11.1494 56.0572 11.0819C56.2316 11.0144 56.4087 10.9553 56.5887 10.9047C56.7687 10.8541 56.9572 10.8175 57.1541 10.795C57.3509 10.7725 57.5562 10.7669 57.77 10.7781L57.9725 9.19187C57.6012 9.16937 57.2581 9.20031 56.9431 9.28469ZM66.8656 11.2253C67.2144 11.8834 67.3888 12.6569 67.3888 13.5456C67.3888 14.4794 67.2003 15.2894 66.8234 15.9756C66.4466 16.6619 65.9206 17.1906 65.2456 17.5619C64.5706 17.9331 63.7944 18.1187 62.9169 18.1187C62.0394 18.1187 61.3306 17.9444 60.6894 17.5956C60.0481 17.2469 59.5559 16.7378 59.2128 16.0684C58.8697 15.3991 58.6981 14.6031 58.6981 13.6806C58.6981 12.7581 58.8809 11.9594 59.2466 11.2844C59.6122 10.6094 60.1241 10.0862 60.7822 9.715C61.4403 9.34375 62.2081 9.15812 63.0856 9.15812C63.9631 9.15812 64.7253 9.33812 65.3722 9.69812C66.0191 10.0581 66.5169 10.5672 66.8656 11.2253ZM65.6 13.5794C65.6 13.1181 65.5494 12.6991 65.4481 12.3222C65.3469 11.9453 65.1922 11.6219 64.9841 11.3519C64.7759 11.0819 64.5172 10.8766 64.2078 10.7359C63.8984 10.5953 63.53 10.525 63.1025 10.525C62.5625 10.525 62.0984 10.6375 61.7103 10.8625C61.3222 11.0875 61.0212 11.425 60.8075 11.875C60.5938 12.325 60.4869 12.8931 60.4869 13.5794C60.4869 14.2656 60.5938 14.8619 60.8075 15.3344C61.0212 15.8069 61.3137 16.1613 61.685 16.3975C62.0562 16.6338 62.495 16.7519 63.0012 16.7519C63.5075 16.7519 63.9575 16.6366 64.3512 16.4059C64.745 16.1753 65.0516 15.8238 65.2709 15.3513C65.4903 14.8787 65.6 14.2881 65.6 13.5794ZM81.1419 9.5125C80.7369 9.27625 80.2362 9.15812 79.64 9.15812C79.1787 9.15812 78.7344 9.23406 78.3069 9.38594C77.8794 9.53781 77.4744 9.75437 77.0919 10.0356C76.8837 10.1875 76.6841 10.3591 76.4928 10.5419C76.2959 10.0947 76.0091 9.75437 75.6238 9.52937C75.2188 9.29312 74.7125 9.175 74.105 9.175C73.655 9.175 73.2134 9.25094 72.7803 9.40281C72.3472 9.55469 71.9394 9.76844 71.5569 10.0441C71.4359 10.1312 71.3178 10.2269 71.2025 10.3253V9.175L69.4812 9.42812V17.95H71.2025V11.5319C71.4078 11.3997 71.6187 11.2759 71.8353 11.1747C72.1109 11.0453 72.3894 10.9469 72.6706 10.8794C72.9519 10.8119 73.2219 10.7781 73.4806 10.7781C73.7731 10.7781 74.0178 10.8203 74.2147 10.9047C74.4116 10.9891 74.5775 11.1128 74.7125 11.2759C74.8475 11.4391 74.9459 11.6528 75.0078 11.9172C75.0697 12.1816 75.1006 12.4881 75.1006 12.8369V17.95H76.8219V12.4825C76.8219 12.1309 76.7994 11.8103 76.7572 11.5178C76.9569 11.3884 77.1566 11.2703 77.3619 11.1662C77.6319 11.0312 77.9075 10.93 78.1887 10.8625C78.47 10.795 78.7456 10.7613 79.0156 10.7613C79.2856 10.7613 79.5387 10.8034 79.7412 10.8878C79.9438 10.9722 80.1125 11.0959 80.2475 11.2591C80.3825 11.4222 80.4809 11.6359 80.5428 11.9003C80.6047 12.1647 80.6356 12.4713 80.6356 12.82V17.95H82.3569V12.4656C82.3569 11.7006 82.2556 11.0763 82.0531 10.5925C81.8506 10.1088 81.5469 9.74875 81.1419 9.5125ZM90.6341 14.7016C90.5384 14.4597 90.4062 14.2487 90.2375 14.0687C90.0687 13.8888 89.8719 13.7341 89.6469 13.6047C89.4219 13.4753 89.1856 13.3656 88.9381 13.2756C88.7581 13.2194 88.5809 13.1603 88.4066 13.0984C88.2322 13.0366 88.0578 12.9803 87.8834 12.9297C87.7091 12.8791 87.5403 12.8256 87.3772 12.7694C87.2141 12.7131 87.065 12.6513 86.93 12.5838C86.7837 12.505 86.6516 12.4206 86.5334 12.3306C86.4153 12.2406 86.3197 12.1337 86.2466 12.01C86.1734 11.8863 86.1369 11.7456 86.1369 11.5881C86.1369 11.4081 86.1763 11.2534 86.255 11.1241C86.3338 10.9947 86.4519 10.885 86.6094 10.795C86.7669 10.705 86.9553 10.6375 87.1747 10.5925C87.3941 10.5475 87.6444 10.525 87.9256 10.525C88.0494 10.525 88.1844 10.5306 88.3306 10.5419C88.4769 10.5531 88.6372 10.5728 88.8116 10.6009C88.9859 10.6291 89.1603 10.6656 89.3347 10.7106C89.5091 10.7556 89.6862 10.8063 89.8662 10.8625C90.0462 10.9187 90.2094 10.9806 90.3556 11.0481L90.4738 9.68125C90.26 9.59125 90.0491 9.5125 89.8409 9.445C89.6328 9.3775 89.4219 9.32125 89.2081 9.27625C88.9944 9.23125 88.7834 9.20031 88.5753 9.18344C88.3672 9.16656 88.1619 9.15812 87.9594 9.15812C87.4531 9.15812 86.9919 9.21156 86.5756 9.31844C86.1594 9.42531 85.7966 9.58281 85.4872 9.79094C85.1778 9.99906 84.9388 10.2634 84.77 10.5841C84.6012 10.9047 84.5169 11.2844 84.5169 11.7231C84.5169 12.0381 84.5619 12.3166 84.6519 12.5584C84.7419 12.8003 84.86 13.0056 85.0063 13.1744C85.1525 13.3431 85.3241 13.4922 85.5209 13.6216C85.7178 13.7509 85.9287 13.8606 86.1537 13.9506C86.2775 13.9956 86.4069 14.0406 86.5419 14.0856C86.6769 14.1306 86.8091 14.1728 86.9384 14.2122C87.0678 14.2516 87.1944 14.2909 87.3181 14.3303C87.4419 14.3697 87.5628 14.4091 87.6809 14.4484C87.7991 14.4878 87.9144 14.5244 88.0269 14.5581C88.1844 14.6144 88.3306 14.6791 88.4656 14.7522C88.6006 14.8253 88.7159 14.9041 88.8116 14.9884C88.9072 15.0728 88.9803 15.1712 89.0309 15.2837C89.0816 15.3962 89.1069 15.52 89.1069 15.655C89.1069 15.9362 89.0141 16.1584 88.8284 16.3216C88.6428 16.4847 88.4009 16.6 88.1028 16.6675C87.8047 16.735 87.4869 16.7688 87.1494 16.7688C86.9694 16.7688 86.7697 16.7547 86.5503 16.7266C86.3309 16.6984 86.1003 16.6591 85.8584 16.6084C85.6166 16.5578 85.3691 16.4959 85.1159 16.4228C84.8628 16.3497 84.6069 16.2681 84.3481 16.1781L84.4156 17.6125C84.7081 17.7138 84.9753 17.7953 85.2172 17.8572C85.4591 17.9191 85.6897 17.9725 85.9091 18.0175C86.1284 18.0625 86.3422 18.0906 86.5503 18.1019C86.7584 18.1131 86.9694 18.1187 87.1831 18.1187C87.6781 18.1187 88.145 18.0709 88.5838 17.9753C89.0225 17.8797 89.405 17.7306 89.7313 17.5281C90.0575 17.3256 90.3134 17.0612 90.4991 16.735C90.6847 16.4087 90.7775 16.0206 90.7775 15.5706C90.7775 15.2331 90.7297 14.9434 90.6341 14.7016Z" fill="#D4EEFC"/>
</g>
<defs>
<clipPath id="clip0_5919_2884">
<rect width="46.7775" height="12.15" fill="white" transform="translate(44 5.96875)"/>
</clipPath>
</defs>
</svg>

<svg xmlns="http://www.w3.org/2000/svg" viewBox="0 0 96 24"><path fill="#1767CE" d="M0 0h96v24H0z"/><path fill="#fff" d="M6 17.966V5.967h4v12H6Zm9.244-10.089 2.264 10.09H13.2l-2.704-12h2.417a2.276 2.276 0 0 1 1.512.55c.422.346.66.826.82 1.36ZM18 17.967v-12h4v12h-4Zm7.01-7.437a2.381 2.381 0 0 1-2.078-1.191 2.345 2.345 0 0 1-.321-1.208 2.301 2.301 0 0 1 .321-1.2 2.41 2.41 0 0 1 3.278-.862c.356.21.653.506.862.862.215.363.326.778.321 1.2a2.35 2.35 0 0 1-.321 1.208 2.4 2.4 0 0 1-.862.87 2.3 2.3 0 0 1-1.2.321ZM28 17.966V5.967h4v12h-4Zm8.974-5.442c.01.012.095.15.253.415.158.264.364.602.617 1.014a315.936 315.936 0 0 1 1.597 2.619c.247.411.529.876.845 1.394H35.96c-.27-.44-.516-.836-.736-1.191-.22-.355-.453-.738-.7-1.15-.248-.41-.493-.81-.736-1.2-.242-.388-.45-.73-.625-1.022-.175-.293-.296-.49-.363-.591a1.747 1.747 0 0 1-.287-.845c.016-.29.11-.57.27-.812.067-.112.191-.312.371-.6a181.843 181.843 0 0 0 1.37-2.23l.7-1.158.736-1.2h4.326l-3.346 5.459a1.08 1.08 0 0 0-.17.54c.012.203.083.397.204.559Z"/><g clip-path="url(#a)"><path fill="#D4EEFC" d="M49.636 7.454V17.95h-1.772V7.454H44V5.969h9.484v1.485h-3.848Zm7.307 1.83a3.32 3.32 0 0 0-.894.389 4.403 4.403 0 0 0-.793.633c-.04.039-.08.084-.118.126V9.175l-1.722.253v8.522h1.722v-6.376a4.214 4.214 0 0 1 .92-.492 5.88 5.88 0 0 1 .53-.177 3.594 3.594 0 0 1 1.182-.127l.202-1.586a3.21 3.21 0 0 0-1.029.093Zm9.923 1.941c.348.658.523 1.432.523 2.32 0 .934-.189 1.744-.566 2.43a3.93 3.93 0 0 1-1.577 1.587c-.675.371-1.452.557-2.33.557-.877 0-1.585-.175-2.227-.523a3.522 3.522 0 0 1-1.476-1.528c-.343-.669-.515-1.465-.515-2.387 0-.923.183-1.722.549-2.397a3.891 3.891 0 0 1 1.535-1.569c.658-.371 1.426-.557 2.304-.557.877 0 1.64.18 2.286.54.647.36 1.145.87 1.494 1.527ZM65.6 13.58c0-.46-.05-.88-.152-1.257a2.728 2.728 0 0 0-.464-.97 2.025 2.025 0 0 0-.776-.616c-.31-.14-.678-.211-1.105-.211-.54 0-1.005.112-1.393.338-.388.225-.689.562-.903 1.012-.213.45-.32 1.018-.32 1.704 0 .687.107 1.283.32 1.755.214.473.507.827.878 1.064.371.236.81.354 1.316.354a2.62 2.62 0 0 0 1.35-.346c.394-.23.7-.582.92-1.055.22-.472.329-1.063.329-1.772Zm15.542-4.067c-.405-.236-.906-.354-1.502-.354-.461 0-.906.076-1.333.228a4.702 4.702 0 0 0-1.215.65 5.95 5.95 0 0 0-.6.506c-.196-.447-.483-.788-.868-1.013-.405-.236-.911-.354-1.519-.354-.45 0-.892.076-1.325.228a4.802 4.802 0 0 0-1.578.922v-1.15l-1.72.253v8.522h1.72v-6.418c.206-.132.417-.256.633-.357.276-.13.554-.228.836-.296a3.47 3.47 0 0 1 .81-.1c.292 0 .537.041.734.126.197.084.362.208.498.37.135.164.233.378.295.642.062.265.093.571.093.92v5.113h1.72v-5.467c0-.352-.022-.673-.064-.965.2-.13.4-.248.605-.352a3.86 3.86 0 0 1 .827-.303c.281-.068.557-.102.827-.102.27 0 .523.042.725.127.203.084.371.208.507.371.134.163.233.377.295.641.062.265.093.571.093.92v5.13h1.72v-5.484c0-.765-.1-1.39-.303-1.873-.202-.484-.506-.844-.911-1.08Zm9.492 5.19a1.98 1.98 0 0 0-.397-.633 2.54 2.54 0 0 0-.59-.464 4.511 4.511 0 0 0-.709-.33c-.18-.056-.357-.115-.531-.177a9.452 9.452 0 0 0-.524-.168c-.174-.05-.343-.104-.506-.16a3.7 3.7 0 0 1-.447-.186 3.007 3.007 0 0 1-.397-.253 1.112 1.112 0 0 1-.286-.321.813.813 0 0 1-.11-.422c0-.18.04-.335.118-.464a.96.96 0 0 1 .354-.329c.158-.09.346-.158.566-.203.22-.045.47-.067.75-.067a5.281 5.281 0 0 1 .887.076c.174.028.348.065.523.11.174.045.351.095.531.152.18.056.343.118.49.185l.118-1.367a7.958 7.958 0 0 0-.633-.236 6.165 6.165 0 0 0-.633-.169 5.05 5.05 0 0 0-.633-.093 7.616 7.616 0 0 0-.616-.025c-.506 0-.967.054-1.383.16a3.486 3.486 0 0 0-1.089.473c-.31.208-.548.472-.717.793-.169.32-.253.7-.253 1.14 0 .314.045.593.135.834.09.242.208.448.354.616.147.17.318.318.515.448.197.129.408.239.633.329a15.301 15.301 0 0 0 .784.261 31.13 31.13 0 0 1 .743.236c.118.04.233.076.346.11.157.056.304.121.439.194.135.073.25.152.346.236a.863.863 0 0 1 .295.667c0 .281-.093.503-.279.667a1.62 1.62 0 0 1-.725.346 4.31 4.31 0 0 1-.954.1c-.18 0-.38-.013-.599-.041a8.927 8.927 0 0 1-.692-.119c-.241-.05-.489-.112-.742-.185a15.064 15.064 0 0 1-.768-.245l.068 1.434c.292.102.56.183.801.245.242.062.473.116.692.16.22.046.433.074.641.085.208.011.42.017.633.017a6.57 6.57 0 0 0 1.4-.144 3.621 3.621 0 0 0 1.148-.447c.327-.202.582-.467.768-.793.186-.326.279-.714.279-1.164 0-.338-.048-.628-.144-.87Z"/></g><defs><clipPath id="a"><path fill="#fff" d="M44 5.969h46.778v12.15H44z"/></clipPath></defs></svg>
